arb/images/icons/viber-logos.svg

<svg width="31" height="33" viewBox="0 0 31 33" fill="none" xmlns="http://www.w3.org/2000/svg">
<path d="M14.4379 0.657977C11.8696 0.688981 6.34793 1.11103 3.25955 3.94438C0.962269 6.22066 0.16017 9.58608 0.0661581 13.7476C-0.0118515 17.8941 -0.105863 25.6811 7.40006 27.8013V31.0307C7.40006 31.0307 7.35306 32.3229 8.20716 32.5879C9.25929 32.921 9.85837 31.9268 10.8585 30.8587L12.7237 28.7494C17.8594 29.1765 21.7928 28.1924 22.2459 28.0464C23.288 27.7133 29.1577 26.9632 30.1169 19.1753C31.101 11.1323 29.6378 6.06464 26.9965 3.77236H26.9805C26.1834 3.03827 22.98 0.703983 15.8231 0.67798C15.8231 0.67798 15.292 0.641975 14.4379 0.656977V0.657977ZM14.5259 2.91926C15.255 2.91426 15.6981 2.94526 15.6981 2.94526C21.7558 2.96126 24.6472 4.78449 25.3293 5.39856C27.5535 7.3048 28.6997 11.8734 27.8606 18.5882C27.0635 25.099 22.3029 25.511 21.4218 25.7921C21.0467 25.9121 17.5823 26.7662 13.2178 26.4852C13.2178 26.4852 9.96738 30.4076 8.95125 31.4178C8.79023 31.5948 8.60221 31.6468 8.4822 31.6208C8.31017 31.5788 8.25817 31.3658 8.26817 31.0737L8.29917 25.7141C1.93339 23.9539 2.30843 17.312 2.37644 13.8426C2.45445 10.3732 3.10553 7.53483 5.04377 5.61259C7.65309 3.2533 12.3417 2.93526 14.5239 2.91926H14.5259ZM15.006 6.38768C14.9536 6.38716 14.9016 6.397 14.8531 6.41666C14.8045 6.43631 14.7603 6.46538 14.723 6.5022C14.6857 6.53902 14.6561 6.58285 14.6358 6.63117C14.6156 6.67949 14.6051 6.73134 14.605 6.78373C14.605 7.00776 14.787 7.18478 15.006 7.18478C15.9976 7.16592 16.9832 7.34357 17.9058 7.70747C18.8284 8.07138 19.6699 8.61434 20.3817 9.30504C21.8348 10.7162 22.5429 12.6125 22.5699 15.0918C22.5699 15.3108 22.747 15.4928 22.971 15.4928V15.4768C23.0766 15.4771 23.178 15.4356 23.2531 15.3614C23.3282 15.2872 23.371 15.1863 23.372 15.0808C23.4206 13.9138 23.2313 12.7491 22.8158 11.6575C22.4002 10.5659 21.7671 9.57024 20.9547 8.73097C19.3715 7.18378 17.3653 6.38668 15.006 6.38668V6.38768ZM9.73435 7.3048C9.45126 7.26343 9.16255 7.32026 8.91625 7.46582H8.89525C8.32344 7.801 7.80833 8.22463 7.36906 8.72097C7.00401 9.14302 6.80599 9.57008 6.75398 9.98113C6.72298 10.2262 6.74398 10.4712 6.81699 10.7052L6.84299 10.7212C7.25404 11.9294 7.79111 13.0915 8.44719 14.1856C9.29232 15.7228 10.3324 17.1444 11.5416 18.4152L11.5776 18.4672L11.6346 18.5092L11.6706 18.5512L11.7126 18.5872C12.988 19.7999 14.413 20.8448 15.9531 21.6966C17.7133 22.6547 18.7815 23.1077 19.4225 23.2958V23.3058C19.6106 23.3628 19.7816 23.3888 19.9536 23.3888C20.5 23.3488 21.0172 23.1269 21.4228 22.7587C21.9169 22.3193 22.3358 21.8021 22.6629 21.2275V21.2175C22.97 20.6394 22.866 20.0924 22.4229 19.7223C21.5356 18.9467 20.5761 18.2578 19.5576 17.6651C18.8755 17.295 18.1824 17.5191 17.9014 17.8941L17.3023 18.6492C16.9952 19.0242 16.4372 18.9722 16.4372 18.9722L16.4212 18.9822C12.2597 17.9191 11.1495 13.7056 11.1495 13.7056C11.1495 13.7056 11.0975 13.1325 11.4826 12.8405L12.2327 12.2364C12.5917 11.9444 12.8417 11.2523 12.4567 10.5692C11.868 9.54923 11.1806 8.58951 10.4044 7.70385C10.2347 7.49505 9.99668 7.35299 9.73235 7.3028L9.73435 7.3048ZM15.6981 8.49294C15.167 8.49294 15.167 9.29504 15.7031 9.29504C16.3634 9.30575 17.0152 9.4465 17.6212 9.70923C18.2271 9.97196 18.7753 10.3515 19.2345 10.8262C19.6534 11.2883 19.9753 11.8297 20.1811 12.4185C20.3869 13.0072 20.4724 13.6313 20.4327 14.2537C20.4345 14.359 20.4775 14.4594 20.5525 14.5334C20.6274 14.6075 20.7284 14.6492 20.8337 14.6497L20.8497 14.6707C20.9558 14.6699 21.0574 14.6274 21.1324 14.5524C21.2075 14.4773 21.25 14.3758 21.2508 14.2697C21.2868 12.6805 20.7927 11.3473 19.8236 10.2792C18.8495 9.21103 17.4903 8.61196 15.7551 8.49294H15.6981ZM16.3552 10.6492C15.8081 10.6332 15.7871 11.4513 16.3292 11.4673C17.6473 11.5353 18.2874 12.2014 18.3714 13.5716C18.3732 13.6756 18.4157 13.7747 18.4897 13.8478C18.5638 13.9209 18.6634 13.9621 18.7675 13.9626H18.7835C18.8369 13.9603 18.8894 13.9474 18.9379 13.9246C18.9863 13.9018 19.0297 13.8696 19.0655 13.8298C19.1014 13.7901 19.129 13.7436 19.1466 13.6931C19.1643 13.6425 19.1718 13.589 19.1685 13.5356C19.0745 11.7493 18.1004 10.7432 16.3712 10.6502H16.3552V10.6492Z" fill="#687A95"/>
</svg>

<svg width="31" height="33" fill="none" xmlns="http://www.w3.org/2000/svg"><path d="M14.438.658c-2.568.031-8.09.453-11.178 3.286C.962 6.221.16 9.586.066 13.748-.012 17.894-.106 25.68 7.4 27.8v3.23s-.047 1.292.807 1.557c1.052.333 1.651-.661 2.651-1.73l1.866-2.109c5.135.428 9.069-.557 9.522-.703 1.042-.333 6.912-1.083 7.87-8.87.985-8.044-.478-13.111-3.12-15.404h-.015C26.182 3.038 22.98.704 15.822.678c0 0-.531-.036-1.385-.021v.001zm.088 2.261c.729-.005 1.172.026 1.172.026 6.058.016 8.95 1.84 9.631 2.454 2.224 1.906 3.37 6.474 2.532 13.19-.797 6.51-5.558 6.922-6.44 7.203-.374.12-3.839.974-8.203.693 0 0-3.25 3.923-4.267 4.933-.16.177-.349.229-.469.203-.172-.042-.224-.255-.214-.547l.031-5.36c-6.366-1.76-5.99-8.402-5.923-11.871.078-3.47.73-6.308 2.668-8.23 2.61-2.36 7.298-2.678 9.48-2.694h.002zm.48 3.469a.397.397 0 00-.401.396.4.4 0 00.401.4 7.514 7.514 0 015.376 2.121c1.453 1.411 2.16 3.308 2.188 5.787a.4.4 0 00.401.4v-.015a.4.4 0 00.401-.396 8.616 8.616 0 00-2.417-6.35c-1.583-1.547-3.59-2.344-5.949-2.344zm-5.272.917a1.252 1.252 0 00-.818.16h-.02a6.277 6.277 0 00-1.527 1.256c-.365.422-.563.85-.615 1.26-.031.245-.01.49.063.724l.026.016c.411 1.208.948 2.37 1.604 3.465a20.378 20.378 0 003.095 4.23l.036.051.057.042.036.042.042.036a20.677 20.677 0 004.24 3.11c1.76.958 2.829 1.41 3.47 1.599v.01c.188.057.359.083.53.083a2.452 2.452 0 001.47-.63 6.07 6.07 0 001.24-1.532v-.01c.307-.578.203-1.125-.24-1.495a18.467 18.467 0 00-2.865-2.057c-.683-.37-1.376-.146-1.657.23l-.599.754c-.307.375-.865.323-.865.323l-.016.01c-4.161-1.063-5.271-5.276-5.271-5.276s-.053-.573.333-.865l.75-.605c.359-.292.609-.984.224-1.667a17.996 17.996 0 00-2.053-2.865 1.14 1.14 0 00-.672-.401l.002.002zm5.964 1.188c-.531 0-.531.802.005.802a5.027 5.027 0 013.532 1.531 4.66 4.66 0 011.198 3.428.403.403 0 00.4.396l.017.02a.404.404 0 00.4-.4c.037-1.59-.457-2.923-1.426-3.99-.975-1.069-2.334-1.668-4.069-1.787h-.057zm.657 2.156c-.547-.016-.568.802-.026.818 1.318.068 1.958.734 2.042 2.105a.398.398 0 00.396.39h.017a.404.404 0 00.385-.426c-.095-1.787-1.069-2.793-2.798-2.886h-.016z" fill="#687A95"/></svg>
